X: 19769
T: Jenny's Wedding
R: reel
M: 4/4
K: Dmajor
|:D2 (3FED AD (3FED|Adde fded|cAAB =c3d|eaag edcA|
D2FA dfed|cAAB cdeg|fdec d2cA|1 (3Bcd AG FDDE:|2 (3Bcd AG FDDA||
|:d2fd Adfd|ecAB cdec|d2fd Adfd|cdeg fddc|
d2fd Adfd|cdef g2fg|af~fe d2cA|(3Bcd AG FDDA:|

